X:1
T:Title
%%score { ( 1 3 5 ) | ( 2 4 6 ) }
L:1/8
M:3/4
K:G
V:1 treble nm="Grand Piano"
V:3 treble 
V:5 treble 
V:2 bass 
V:4 bass 
V:6 bass 
V:1
 z2 z[Q:1/4=100] D [DB]>[CA] | [B,G]3 [B,G] [B,G]>[B,E] | [CF]3 [Fc] [Fc]>[=F^G] | [FA]3 E G>F | %4
[M:3/8] F3 | D[Fd]>[Fc] |[M:3/4] [GB]3 [^Ge] [Ge]>[GB] | [Ac]3 [Ec] [DB]A | D3 G B>A |[M:3/8] G3 | %10
[M:4/4] z2 z F- F4 | z2 z B- B4 | z2 z ^c- c4 | AG- G<.E A,A,- A,/B,/C |[M:35/32] z35/4 | %15
[M:4/4] e2- e3/4 z/4 z z4 | z8 |[M:5/8] z [FB]-[FB]/4 z/4 z/ z2 | z5 |] %19
V:2
 z2 z [G,,G,] [G,,G,]>[G,,G,] | [G,,G,]3 [G,,G,] [G,,G,]>[G,,G,] | [D,A,]3 [D,A,] [D,A,]>[D,A,] | %3
 [D,C]3 [A,^C] [A,CE]>[D,=CD] |[M:3/8] [D,CD]3 | [D,F,][D,A,]>[D,D] | %6
[M:3/4] [G,D]3 [E,D] [E,D]>[E,E] | [A,E]3 [A,,A,] [B,,^G,][C,A,C] | %8
 [D,B,]3 [D,B,D] [D,B,D]>[D,CD] |[M:3/8][K:treble] [G,B,D]3 | %10
[M:4/4] DD- D/D/C[K:bass] D,F,- F,/A,/D, | z2 z D- D4[K:bass] | z2 z[K:bass] E- E4 | %13
 FE- E<.^C[K:bass] [D,F,][D,F,]- [D,F,]/[D,G,]/[D,A,] | %14
[M:35/32][K:treble] z3[K:bass] G/- G4- G/F,3/4- |[M:4/4] F,3/4 z/4 z z A,- A,/4 z/4 z/ z z2 | z8 | %17
[M:5/8] z D-D/4 z/4 z/ z2 | z5 |] %19
V:3
 x6 | x6 | x6 | x6 |[M:3/8] x3 | x3 |[M:3/4] x6 | x6 | x6 |[M:3/8] x3 |[M:4/4] GG- G<.E CC- C/C/C | %11
 cc- c<.A B,B,- B,/B,/B, | B_B- B<.=B A,A,- A,/A,/A, | z2 z D- D4 | %14
[M:35/32] z3 B/- B4- B/[^DAB]3/4- |[M:4/4] [DAB]3/4 z/4 z z/ [^GB]/-[GB]/4 z/4 z/ z4 | x8 | %17
[M:5/8] z2 A- A/4 z/4 z/ z | x5 |] %19
V:4
 x6 | x6 | x6 | x6 |[M:3/8] x3 | x3 |[M:3/4] x6 | x6 | x6 |[M:3/8][K:treble] x3 | %10
[M:4/4] x4[K:bass] x4 | EE- E<.F G,[K:bass]D,- D,/B,,/G,, | GF- F<.G[K:bass] A,,^C,- C,<.E, | %13
 x4[K:bass] x4 |[M:35/32][K:treble] FE .F2[K:bass] G,,B,,>D,G, z3/4 | %15
[M:4/4] E,2- E,/E,/-E,/4 z/4 z/ (5:4:4A,, C,2 E,/A,3/2 | x8 |[M:5/8] z2 [D,C]- [D,C]/4 z/4 z/ z | %18
 x5 |] %19
V:5
 x6 | x6 | x6 | x6 |[M:3/8] x3 | x3 |[M:3/4] x6 | x6 | x6 |[M:3/8] x3 |[M:4/4] x8 | x8 | x8 | x8 | %14
[M:35/32] d^c .=c2 DD>DD z3/4 |[M:4/4] [E^G]2- [EG]/E/[EAc]- [EAc]4 | %16
 (5:4:4[Ec][DB]3/2[EA][Gd]3/2- [Gd-]4 |[M:5/8] [GBd]3/4 z/4 z D [B,DG]2- | %18
 [B,DG]- [B,DG]2- [B,DG]/4 z/4 z/ z |] %19
V:6
 x6 | x6 | x6 | x6 |[M:3/8] x3 | x3 |[M:3/4] x6 | x6 | x6 |[M:3/8][K:treble] x3 | %10
[M:4/4] x4[K:bass] x4 | x5[K:bass] x3 | x3[K:bass] x5 | x4[K:bass] x4 | %14
[M:35/32][K:treble] x3[K:bass] x23/4 |[M:4/4] x8 | %16
 (5:4:4[A,,A,][B,,^G,]3/2[C,A,][D,B,]3/2- [D,B,-]4 |[M:5/8] [D,B,D]3/4 z/4 D, z [G,,G,]2- | %18
 [G,,G,]- [G,,G,]2- [G,,G,]/4 z/4 z/ z |] %19

